image/advantages-text3.svg

<svg fill="none" height="45" viewBox="0 0 167 45" width="167" xmlns="http://www.w3.org/2000/svg"><g fill="#000"><path d="m3.05118 14.2652v4.8154c0 .2792-.32868.7346-.61974.8098-.2673.0693-1.59588.0634-1.8513-.0178-.36828-.1188-.5148009-.5128-.57024091-.8593l-.00989909-13.97288c.05346-.63756.3465-1.06722 1.02564-1.08702 4.19166.14652 8.50806-.1881 12.68386 0 1.7761.0792 5.0946.65538 5.946 2.4453.3465.72864.3009 3.10662.2395 3.9897-.2257 3.2234-3.8847 3.7521-6.4389 3.8788-3.1997.1545-6.79736.1743-10.00694.0673-.1386-.0039-.26334-.0633-.40194-.0653h.00198zm0-2.4829h11.22262c.8851-.0713 2.3938-.3069 2.6116-1.3622.103-.49898.0812-2.2196.0297-2.77004-.095-1.02168-1.9463-1.08504-2.7066-1.2078h-11.15732v5.34204z"/><path d="m116.551 10.7864h14.202c.105 0 .499.1881.594.2752.432.402.329 1.6573-.156 2.0236-.058.0436-.331.1861-.374.1861h-14.203v2.8888c0 .0792.21.3861.279.4673.58.6811 2.127.8296 2.98.8712 3.594.1743 7.328-.1406 10.938.002 1.095.1307 1.089 2.3562-.054 2.4196-3.815-.1782-7.833.2277-11.626-.004-2.059-.1247-5.263-.986-5.501-3.4472-.271-2.8037.202-6.035 0-8.88227.434-2.75814 3.883-3.53033 6.243-3.63725.99-.04356 2.455-.08316 3.424 0 .968.08316 1.073.84744.954 1.70478-.059.44352-.404.71676-.84.77616-1.615.21978-5.3-.42966-6.52.81378-.115.11682-.342.5049-.342.65142v2.88878h.002z"/><path d="m30.1515 10.7864h13.9847v-6.18159c0-.21384.404-.50688.6079-.57222.5485-.17622 1.9978-.23562 2.2453.4554.1485 4.90248.0436 9.84651.0535 14.76291-.0475.2811-.2594.5643-.5425.6375-.2475.0634-1.4969.0674-1.7602.0159-.2277-.0456-.6059-.4237-.6059-.6376v-5.9954h-13.9848v5.9954c0 .2139-.3782.592-.6059.6376-.2653.0534-1.5681.0475-1.8097-.0277-.2653-.0832-.5088-.4198-.5544-.6891l-.0178-14.21243c.002-.37224.1683-.75834.5188-.90882.4613-.198 1.8374-.19998 2.2215.16434.0535.0495.2455.33858.2455.3762v6.18161z"/><path d="m144.958 11.7823c-.058 0-.111-.0257-.155-.0613-2.215-1.89292-4.724-3.76006-6.837-5.71828-.475-.43956-.974-.93258-.566-1.61766.198-.33066.636-.4059.996-.43362.471-.03762 1.208-.05346 1.608.198l7.094 5.89046.309-.18806 6.788-5.7024c.461-.27324 1.57-.26928 2.073-.10296.786.2574.772 1.10286.281 1.64934l-7.306 6.11618 7.46 6.3341c.454.4059.636 1.182.091 1.5859-.459.3406-1.974.3347-2.477-.0099l-7.165-6.0746c-2.525 1.9919-4.938 4.1342-7.449 6.1479-.493.2554-1.438.2138-1.976.1069-.887-.1742-.855-1.1721-.327-1.7265 2.35-2.083 4.948-3.9897 7.273-6.0866.047-.0435.303-.2772.281-.3069z"/><path d="m90.0564 3.97123c.7029-.10098 1.982-.14454 2.1245.76428v10.99299c.1446 1.6553 2.2711 1.6394 3.5145 1.7067 3.6215.1961 7.2906-.0316 10.9256.0753 1.042.1742 1.014 2.3582-.107 2.4096-3.904-.1722-7.9911.2198-11.8739-.0039-2.2671-.1307-5.2569-1.1762-5.443-3.8155-.2554-3.659.198-7.61705.002-11.30777.0554-.49104.3781-.75438.8553-.8217z"/><path d="m65.6291 3.97126c.6614-.09702 1.9721-.15246 2.1127.7128l.0119 10.98304c.1465 1.7147 2.2215 1.6989 3.5125 1.7701 3.6214.1961 7.2903-.0316 10.9256.0753.7683.1287.8098.9999.7247 1.6256-.0554.4098-.4019.792-.8316.784-3.9045-.1702-7.9913.2198-11.8741-.0039-2.3146-.1327-5.245-1.2039-5.443-3.8808-.2653-3.6096.204-7.54184.002-11.18306.0614-.5148.3445-.80982.8554-.88308z"/><path d="m55.3074 8.06589c.2099-.04752 1.2494-.0396 1.4315.03366.2733.11088.596.6237.6316.9207l.006 10.12175c-.0357.3544-.2831.7148-.6574.7722-.2673.0416-1.3345.0396-1.582-.0257-.2851-.0733-.5128-.4059-.5524-.6911l-.004-10.05637c-.0039-.36432.3742-.99396.7267-1.07514z"/><path d="m55.6222 3.97122c1.1524-.13662 2.5522.58608 2.0949 1.90872-.5247 1.52064-3.8393 1.3959-3.5759-.77814.0752-.62568.9088-1.06326 1.479-1.13058z"/><path d="m164.815.545797c2.234 1.253343 2.026 4.480743-.241 5.599443-3.4 1.67706-7.269-1.9305-4.691-4.9599 1.182-1.387981 3.4-1.496883 4.93-.639543zm-.812.091082c-5.056-1.781999-6.167 6.033061-.776 5.460841 3.093-.32868 3.681-4.4352.776-5.460841z"/><path d="m162.691 1.33774c.277.01782.582.03168.837.23562.456.3663.452 1.56618-.229 1.71072.18.17622 1.009 1.94634 1.009 1.94634l-.615-.00792-.921-1.72062h-.768v1.7325l-.577-.00396v-3.8907c.016.01188.777-.03168 1.268 0zm.249.48114c-.287-.03762-.618-.01188-.938 0v1.20978c.219-.01188 1.085.06732 1.221-.23364.111-.2475.139-.9207-.283-.97614z"/><path d="m73.7471 42.7178c.1683 0 .3484-.0555.5128-.0634 1.8869-.099 3.6155.9603 5.5163.6178.883-.1604 1.4988-.6772 2.073-1.3286l.2614.0891c.0059.0356 0 .0594-.0159.0931-.0396.0851-.295.3801-.3742.4692-1.2315 1.392-2.9977 1.9404-4.8332 1.7424-1.2731-.1366-2.5918-.6356-3.8728-.6831-.4554-.0158-.796.0852-1.2118.2515l-.1762-.2059 3.3996-2.7443c-1.6929-.2139-2.869-1.588-3.1422-3.2235-.6257-3.7461 3.1224-8.4209 6.932-8.6506 3.5145-.2118 4.9361 2.58 4.1322 5.7242-.8316 3.2512-3.5858 6.1736-7.1102 6.2113l-2.0908 1.6988zm5.047-13.0938c-3.0928.2079-5.0748 4.7144-5.2054 7.3993-.0971 1.9879.8494 3.8412 3.1224 3.3719 2.6928-.5563 4.5699-4.8252 4.7421-7.3022.1228-1.778-.5682-3.6095-2.6571-3.469z"/><path d="m87.1932 40.7536.0654-.3089c.3762-.0257.8177-.0317 1.1484-.2396.4158-.2613.6851-1.2335.8296-1.6968.6851-2.2018 1.3622-4.5639 1.9404-6.7954.101-.3901.3425-1.1623.2435-1.5365-.1247-.4732-.8751-.4831-1.2652-.5286l.0772-.2812.0931-.0317c1.6196.0753 3.3224-.093 4.9322 0 3.5541.2079 4.0352 3.8551 1.1068 5.447-1.4672.7979-3.0888.7504-4.6807.3901-.303 1.2929-.7524 2.5482-1.0831 3.8313-.1742.6732-.4138 1.2058.4831 1.3701.2178.0396.4436.0337.6633.0713l-.1089.3109h-4.4451zm4.6827-6.1182c1.8791.6118 4.0571.097 4.6372-1.9879.6178-2.2236-.9247-2.8671-2.8413-2.6235-.0792.0099-.5267.0693-.5445.095l-1.2514 4.5144z"/><path d="m48.2605 29.0894.3386-.004-.8435 3.7739h-.3109c.0238-.5702.0792-1.0969-.1108-1.6513-.9188-2.6829-5.7599-1.3464-3.8472 1.4434.9821 1.4316 3.37 2.7918 3.5185 4.6233.2138 2.6097-2.1186 4.1184-4.5303 3.6571-.5464-.105-1.578-.6257-2.0037-.6158-.3544.0079-.6574.3604-.7386.6831l-.3405.004.9563-4.2392.2614-.004c-.0297.7465-.1248 1.4712.1821 2.1741.7307 1.675 3.471 2.0453 4.3798.3425 1.481-2.774-3.2155-4.4431-3.5264-6.9359-.3029-2.4335 2.18-3.7561 4.3184-3.1007.4019.1227 1.1246.5405 1.4969.5346.4019-.0079.6534-.3505.7999-.6831z"/><path d="m61.6413 28.7726-1.6216 5.7717c.7643-.8316 1.6117-1.5206 2.8195-1.3999.996.099 1.6672.99 1.7365 1.9444.1524 2.1186-1.2573 4.4352-3.1205 5.3995-1.483.7682-3.0433.5247-4.3263-.499l2.7265-9.4644c.4078-1.0415-.3168-1.1088-1.1465-.9742v-.291l2.9324-.4891zm.1802 5.1876c-1.2217.103-2.0018 1.3048-2.3483 2.3621-.4019 1.2257-.687 2.5226-1.0711 3.7561.8909.5405 1.7067.6039 2.6254.0752 1.4157-.8157 2.2711-3.2452 2.1424-4.8133-.0594-.7287-.5445-1.4474-1.3484-1.3801z"/><path d="m56.1805 33.3286-1.6375 5.4608c-.0752.2792-.2851.9405-.2277 1.194.0218.099.0812.1564.1822.1346.3326-.0673.6574-.8969.889-1.1425.0456.0713.2356.1446.2297.2277-.0079.0931-.5069.7802-.6019.895-.2594.3128-.7485.7702-1.1623.8336-1.3484.2118-.7148-1.5207-.5227-2.2077.1485-.5307.3802-1.095.5009-1.6216.008-.0317.0416-.101-.0178-.0951-.1168.2337-.2653.4495-.4118.6653-.7643 1.1207-2.2156 3.1838-3.6907 3.267-1.1029.0634-1.1702-.7999-.9999-1.6553.3128-1.5662 1.1662-3.1442 1.4988-4.6787.0456-.2099.1208-.5069-.1881-.5326-.5504-.0476-1.0276.7444-1.4038 1.0573l-.2515-.1802c.4257-.7108 1.4276-1.6969 2.2889-1.8018 1.1603-.1406 1.0811.8435.8712 1.6513-.3485 1.3504-.9662 2.6908-1.3642 4.0333-.1327.4435-.4693 1.285.3445 1.1563.9504-.1485 2.3107-2.0255 2.8314-2.8156.493-.7484.8098-1.4869 1.0989-2.3344.1703-.5009.2891-1.0276.4831-1.5147h1.2633z"/><path d="m111.187 33.3286-1.638 5.4608c-.075.2792-.285.9405-.227 1.194.022.099.081.1564.182.1346.333-.0673.657-.8969.889-1.1425.045.0713.236.1446.23.2277-.008.0931-.507.7802-.602.895-.26.3128-.749.7702-1.163.8336-1.348.2118-.714-1.5207-.522-2.2077.148-.5307.38-1.095.501-1.6216.008-.0317.041-.101-.018-.0951-.117.2337-.266.4495-.412.6653-.764 1.1207-2.216 3.1838-3.691 3.267-1.103.0634-1.17-.7999-1-1.6553.313-1.5662 1.167-3.1442 1.499-4.6787.046-.2099.121-.5069-.188-.5326-.55-.0476-1.028.7444-1.404 1.0573l-.251-.1802c.426-.7108 1.427-1.6969 2.289-1.8018 1.16-.1406 1.081.8435.871 1.6513-.349 1.3504-.966 2.6908-1.364 4.0333-.133.4435-.47 1.285.344 1.1563.951-.1485 2.311-2.0255 2.832-2.8156.493-.7484.809-1.4869 1.099-2.3344.17-.5009.289-1.0276.483-1.5147h1.263z"/><path d="m103.295 28.7726-2.887 9.8287c-.068.2455-.327 1.0475-.277 1.2415.047.1861.176.2277.356.1802.305-.0832.857-.9326.998-1.2336l.267.2832c-.477.7207-1.503 2.1106-2.5085 1.8493-.3009-.0772-.4891-.4138-.5009-.7089.6989-2.9521 1.6814-5.835 2.5084-8.7555.107-.3762.37-1.1009.39-1.4514.038-.6514-.851-.4989-1.249-.4514v-.2911l2.903-.489z"/><path d="m117.402 33.1464.337-.0059-.503 2.5859-.325-.0258c-.022-.5425-.115-1.188-.465-1.6255-.953-1.1821-3.129-.2476-1.762 1.4513.9 1.1207 2.536 2.4354 1.732 4.0748-.582 1.1841-1.921 1.5108-3.13 1.2573-.418-.0871-1.014-.4237-1.39-.192-.212.1306-.186.3643-.551.2752l.503-2.7423.341-.004c0 .7109.15 1.6157.782 2.0414.762.5128 2.142.3861 2.386-.6356.322-1.3582-1.883-2.7086-2.21-4.0332-.402-1.6197 1.115-2.7403 2.624-2.374.57.1386 1.225.7048 1.635-.0476z"/><path d="m70.2524 36.4471-.3129 1.1246h-4.3976l.3426-1.1246z"/></g></svg>

<svg width="167" height="45" viewBox="0 0 167 45" fill="none" xmlns="http://www.w3.org/2000/svg">
<path d="M3.05118 14.2652V19.0806C3.05118 19.3598 2.7225 19.8152 2.43144 19.8904C2.16414 19.9597 0.83556 19.9538 0.58014 19.8726C0.21186 19.7538 0.0653391 19.3598 0.00989909 19.0133L0 5.04042C0.05346 4.40286 0.3465 3.9732 1.02564 3.9534C5.2173 4.09992 9.5337 3.7653 13.7095 3.9534C15.4856 4.0326 18.8041 4.60878 19.6555 6.3987C20.002 7.12734 19.9564 9.50532 19.895 10.3884C19.6693 13.6118 16.0103 14.1405 13.4561 14.2672C10.2564 14.4217 6.65874 14.4415 3.44916 14.3345C3.31056 14.3306 3.18582 14.2712 3.04722 14.2692H3.0492L3.05118 14.2652ZM3.05118 11.7823H14.2738C15.1589 11.711 16.6676 11.4754 16.8854 10.4201C16.9884 9.92112 16.9666 8.2005 16.9151 7.65006C16.8201 6.62838 14.9688 6.56502 14.2085 6.44226H3.05118V11.7843V11.7823Z" fill="black"/>
<path d="M116.551 10.7864H130.753C130.858 10.7864 131.252 10.9745 131.347 11.0616C131.779 11.4636 131.676 12.7189 131.191 13.0852C131.133 13.1288 130.86 13.2713 130.817 13.2713H116.614V16.1601C116.614 16.2393 116.824 16.5462 116.893 16.6274C117.473 17.3085 119.02 17.457 119.873 17.4986C123.467 17.6729 127.201 17.358 130.811 17.5006C131.906 17.6313 131.9 19.8568 130.757 19.9202C126.942 19.742 122.924 20.1479 119.131 19.9162C117.072 19.7915 113.868 18.9302 113.63 16.469C113.359 13.6653 113.832 10.434 113.63 7.58673C114.064 4.82859 117.513 4.0564 119.873 3.94948C120.863 3.90592 122.328 3.86632 123.297 3.94948C124.265 4.03264 124.37 4.79692 124.251 5.65426C124.192 6.09778 123.847 6.37102 123.411 6.43042C121.796 6.6502 118.111 6.00076 116.891 7.2442C116.776 7.36102 116.549 7.7491 116.549 7.89562V10.7844H116.551V10.7864Z" fill="black"/>
<path d="M30.1515 10.7864H44.1362V4.60481C44.1362 4.39097 44.5402 4.09793 44.7441 4.03259C45.2926 3.85637 46.7419 3.79697 46.9894 4.48799C47.1379 9.39047 47.033 14.3345 47.0429 19.2509C46.9954 19.532 46.7835 19.8152 46.5004 19.8884C46.2529 19.9518 45.0035 19.9558 44.7402 19.9043C44.5125 19.8587 44.1343 19.4806 44.1343 19.2667V13.2713H30.1495V19.2667C30.1495 19.4806 29.7713 19.8587 29.5436 19.9043C29.2783 19.9577 27.9755 19.9518 27.7339 19.8766C27.4686 19.7934 27.2251 19.4568 27.1795 19.1875L27.1617 4.97507C27.1637 4.60283 27.33 4.21673 27.6805 4.06625C28.1418 3.86825 29.5179 3.86627 29.902 4.23059C29.9555 4.28009 30.1475 4.56917 30.1475 4.60679V10.7884L30.1515 10.7864Z" fill="black"/>
<path d="M144.958 11.7823C144.9 11.7823 144.847 11.7566 144.803 11.721C142.588 9.82808 140.079 7.96094 137.966 6.00272C137.491 5.56316 136.992 5.07014 137.4 4.38506C137.598 4.0544 138.036 3.97916 138.396 3.95144C138.867 3.91382 139.604 3.89798 140.004 4.14944L147.098 10.0399L147.407 9.85184L154.195 4.14944C154.656 3.8762 155.765 3.88016 156.268 4.04648C157.054 4.30388 157.04 5.14934 156.549 5.69582L149.243 11.812L156.703 18.1461C157.157 18.552 157.339 19.3281 156.794 19.732C156.335 20.0726 154.82 20.0667 154.317 19.7221L147.152 13.6475C144.627 15.6394 142.214 17.7817 139.703 19.7954C139.21 20.0508 138.265 20.0092 137.727 19.9023C136.84 19.7281 136.872 18.7302 137.4 18.1758C139.75 16.0928 142.348 14.1861 144.673 12.0892C144.72 12.0457 144.976 11.812 144.954 11.7823H144.958Z" fill="black"/>
<path d="M90.0564 3.97123C90.7593 3.87025 92.0384 3.82669 92.1809 4.73551V15.7285C92.3255 17.3838 94.452 17.3679 95.6954 17.4352C99.3169 17.6313 102.986 17.4036 106.621 17.5105C107.663 17.6847 107.635 19.8687 106.514 19.9201C102.61 19.7479 98.5229 20.1399 94.6401 19.9162C92.373 19.7855 89.3832 18.74 89.1971 16.1007C88.9417 12.4417 89.3951 8.48365 89.1991 4.79293C89.2545 4.30189 89.5772 4.03855 90.0544 3.97123H90.0564Z" fill="black"/>
<path d="M65.6291 3.97126C66.2905 3.87424 67.6012 3.8188 67.7418 4.68406L67.7537 15.6671C67.9002 17.3818 69.9752 17.366 71.2662 17.4372C74.8876 17.6333 78.5565 17.4056 82.1918 17.5125C82.9601 17.6412 83.0016 18.5124 82.9165 19.1381C82.8611 19.5479 82.5146 19.9301 82.0849 19.9221C78.1804 19.7519 74.0936 20.1419 70.2108 19.9182C67.8962 19.7855 64.9658 18.7143 64.7678 16.0374C64.5025 12.4278 64.9718 8.49556 64.7698 4.85434C64.8312 4.33954 65.1143 4.04452 65.6252 3.97126H65.6291Z" fill="black"/>
<path d="M55.3074 8.06589C55.5173 8.01837 56.5568 8.02629 56.7389 8.09955C57.0122 8.21043 57.3349 8.72325 57.3705 9.02025L57.3765 19.142C57.3408 19.4964 57.0934 19.8568 56.7191 19.9142C56.4518 19.9558 55.3846 19.9538 55.1371 19.8885C54.852 19.8152 54.6243 19.4826 54.5847 19.1974L54.5807 9.14103C54.5768 8.77671 54.9549 8.14707 55.3074 8.06589Z" fill="black"/>
<path d="M55.6222 3.97122C56.7746 3.8346 58.1744 4.5573 57.7171 5.87994C57.1924 7.40058 53.8778 7.27584 54.1412 5.1018C54.2164 4.47612 55.05 4.03854 55.6202 3.97122H55.6222Z" fill="black"/>
<path d="M164.815 0.545797C167.049 1.79914 166.841 5.02654 164.574 6.14524C161.174 7.8223 157.305 4.21474 159.883 1.18534C161.065 -0.202641 163.283 -0.311543 164.813 0.545797H164.815ZM164.003 0.636879C158.947 -1.14512 157.836 6.66994 163.227 6.09772C166.32 5.76904 166.908 1.66252 164.003 0.636879Z" fill="black"/>
<path d="M162.691 1.33774C162.968 1.35556 163.273 1.36942 163.528 1.57336C163.984 1.93966 163.98 3.13954 163.299 3.28408C163.479 3.4603 164.308 5.23042 164.308 5.23042L163.693 5.2225L162.772 3.50188H162.004V5.23438L161.427 5.23042V1.33972C161.443 1.3516 162.204 1.30804 162.695 1.33972L162.691 1.33774ZM162.94 1.81888C162.653 1.78126 162.322 1.807 162.002 1.81888V3.02866C162.221 3.01678 163.087 3.09598 163.223 2.79502C163.334 2.54752 163.362 1.87432 162.94 1.81888Z" fill="black"/>
<path d="M73.7471 42.7178C73.9154 42.7178 74.0955 42.6623 74.2599 42.6544C76.1468 42.5554 77.8754 43.6147 79.7762 43.2722C80.6592 43.1118 81.275 42.595 81.8492 41.9436L82.1106 42.0327C82.1165 42.0683 82.1106 42.0921 82.0947 42.1258C82.0551 42.2109 81.7997 42.5059 81.7205 42.595C80.489 43.987 78.7228 44.5354 76.8873 44.3374C75.6142 44.2008 74.2955 43.7018 73.0145 43.6543C72.5591 43.6385 72.2185 43.7395 71.8027 43.9058L71.6265 43.6999L75.0261 40.9556C73.3332 40.7417 72.1571 39.3676 71.8839 37.7321C71.2582 33.986 75.0063 29.3112 78.8159 29.0815C82.3304 28.8697 83.752 31.6615 82.9481 34.8057C82.1165 38.0569 79.3623 40.9793 75.8379 41.017L73.7471 42.7158V42.7178ZM78.7941 29.624C75.7013 29.8319 73.7193 34.3384 73.5887 37.0233C73.4916 39.0112 74.4381 40.8645 76.7111 40.3952C79.4039 39.8389 81.281 35.57 81.4532 33.093C81.576 31.315 80.885 29.4835 78.7961 29.624H78.7941Z" fill="black"/>
<path d="M87.1932 40.7536L87.2586 40.4447C87.6348 40.419 88.0763 40.413 88.407 40.2051C88.8228 39.9438 89.0921 38.9716 89.2366 38.5083C89.9217 36.3065 90.5988 33.9444 91.177 31.7129C91.278 31.3228 91.5195 30.5506 91.4205 30.1764C91.2958 29.7032 90.5454 29.6933 90.1553 29.6478L90.2325 29.3666L90.3256 29.3349C91.9452 29.4102 93.648 29.2419 95.2578 29.3349C98.8119 29.5428 99.293 33.19 96.3646 34.7819C94.8974 35.5798 93.2758 35.5323 91.6839 35.172C91.3809 36.4649 90.9315 37.7202 90.6008 39.0033C90.4266 39.6765 90.187 40.2091 91.0839 40.3734C91.3017 40.413 91.5275 40.4071 91.7472 40.4447L91.6383 40.7556H87.1932V40.7536ZM91.8759 34.6354C93.755 35.2472 95.933 34.7324 96.5131 32.6475C97.1309 30.4239 95.5884 29.7804 93.6718 30.024C93.5926 30.0339 93.1451 30.0933 93.1273 30.119L91.8759 34.6334V34.6354Z" fill="black"/>
<path d="M48.2605 29.0894L48.5991 29.0854L47.7556 32.8593H47.4447C47.4685 32.2891 47.5239 31.7624 47.3339 31.208C46.4151 28.5251 41.574 29.8616 43.4867 32.6514C44.4688 34.083 46.8567 35.4432 47.0052 37.2747C47.219 39.8844 44.8866 41.3931 42.4749 40.9318C41.9285 40.8268 40.8969 40.3061 40.4712 40.316C40.1168 40.3239 39.8138 40.6764 39.7326 40.9991L39.3921 41.0031L40.3484 36.7639L40.6098 36.7599C40.5801 37.5064 40.485 38.2311 40.7919 38.934C41.5226 40.609 44.2629 40.9793 45.1717 39.2765C46.6527 36.5025 41.9562 34.8334 41.6453 32.3406C41.3424 29.9071 43.8253 28.5845 45.9637 29.2399C46.3656 29.3626 47.0883 29.7804 47.4606 29.7745C47.8625 29.7666 48.114 29.424 48.2605 29.0914V29.0894Z" fill="black"/>
<path d="M61.6413 28.7726L60.0197 34.5443C60.784 33.7127 61.6314 33.0237 62.8392 33.1444C63.8352 33.2434 64.5064 34.1344 64.5757 35.0888C64.7281 37.2074 63.3184 39.524 61.4552 40.4883C59.9722 41.2565 58.4119 41.013 57.1289 39.9893L59.8554 30.5249C60.2632 29.4834 59.5386 29.4161 58.7089 29.5507V29.2597L61.6413 28.7706V28.7726ZM61.8215 33.9602C60.5998 34.0632 59.8197 35.265 59.4732 36.3223C59.0713 37.548 58.7862 38.8449 58.4021 40.0784C59.293 40.6189 60.1088 40.6823 61.0275 40.1536C62.4432 39.3379 63.2986 36.9084 63.1699 35.3403C63.1105 34.6116 62.6254 33.8929 61.8215 33.9602Z" fill="black"/>
<path d="M56.1805 33.3286L54.543 38.7894C54.4678 39.0686 54.2579 39.7299 54.3153 39.9834C54.3371 40.0824 54.3965 40.1398 54.4975 40.118C54.8301 40.0507 55.1549 39.2211 55.3865 38.9755C55.4321 39.0468 55.6221 39.1201 55.6162 39.2032C55.6083 39.2963 55.1093 39.9834 55.0143 40.0982C54.7549 40.411 54.2658 40.8684 53.852 40.9318C52.5036 41.1436 53.1372 39.4111 53.3293 38.7241C53.4778 38.1934 53.7095 37.6291 53.8302 37.1025C53.8382 37.0708 53.8718 37.0015 53.8124 37.0074C53.6956 37.2411 53.5471 37.4569 53.4006 37.6727C52.6363 38.7934 51.185 40.8565 49.7099 40.9397C48.607 41.0031 48.5397 40.1398 48.71 39.2844C49.0228 37.7182 49.8762 36.1402 50.2088 34.6057C50.2544 34.3958 50.3296 34.0988 50.0207 34.0731C49.4703 34.0255 48.9931 34.8175 48.6169 35.1304L48.3654 34.9502C48.7911 34.2394 49.793 33.2533 50.6543 33.1484C51.8146 33.0078 51.7354 33.9919 51.5255 34.7997C51.177 36.1501 50.5593 37.4905 50.1613 38.833C50.0286 39.2765 49.692 40.118 50.5058 39.9893C51.4562 39.8408 52.8165 37.9638 53.3372 37.1737C53.8302 36.4253 54.147 35.6868 54.4361 34.8393C54.6064 34.3384 54.7252 33.8117 54.9192 33.3246H56.1825L56.1805 33.3286Z" fill="black"/>
<path d="M111.187 33.3286L109.549 38.7894C109.474 39.0686 109.264 39.7299 109.322 39.9834C109.344 40.0824 109.403 40.1398 109.504 40.118C109.837 40.0507 110.161 39.2211 110.393 38.9755C110.438 39.0468 110.629 39.1201 110.623 39.2032C110.615 39.2963 110.116 39.9834 110.021 40.0982C109.761 40.411 109.272 40.8684 108.858 40.9318C107.51 41.1436 108.144 39.4111 108.336 38.7241C108.484 38.1934 108.716 37.6291 108.837 37.1025C108.845 37.0708 108.878 37.0015 108.819 37.0074C108.702 37.2411 108.553 37.4569 108.407 37.6727C107.643 38.7934 106.191 40.8565 104.716 40.9397C103.613 41.0031 103.546 40.1398 103.716 39.2844C104.029 37.7182 104.883 36.1402 105.215 34.6057C105.261 34.3958 105.336 34.0988 105.027 34.0731C104.477 34.0255 103.999 34.8175 103.623 35.1304L103.372 34.9502C103.798 34.2394 104.799 33.2533 105.661 33.1484C106.821 33.0078 106.742 33.9919 106.532 34.7997C106.183 36.1501 105.566 37.4905 105.168 38.833C105.035 39.2765 104.698 40.118 105.512 39.9893C106.463 39.8408 107.823 37.9638 108.344 37.1737C108.837 36.4253 109.153 35.6868 109.443 34.8393C109.613 34.3384 109.732 33.8117 109.926 33.3246H111.189L111.187 33.3286Z" fill="black"/>
<path d="M103.295 28.7726L100.408 38.6013C100.34 38.8468 100.081 39.6488 100.131 39.8428C100.178 40.0289 100.307 40.0705 100.487 40.023C100.792 39.9398 101.344 39.0904 101.485 38.7894L101.752 39.0726C101.275 39.7933 100.249 41.1832 99.2435 40.9219C98.9426 40.8447 98.7544 40.5081 98.7426 40.213C99.4415 37.2609 100.424 34.378 101.251 31.4575C101.358 31.0813 101.621 30.3566 101.641 30.0061C101.679 29.3547 100.79 29.5072 100.392 29.5547V29.2636L103.295 28.7746V28.7726Z" fill="black"/>
<path d="M117.402 33.1464L117.739 33.1405L117.236 35.7264L116.911 35.7006C116.889 35.1581 116.796 34.5126 116.446 34.0751C115.493 32.893 113.317 33.8275 114.684 35.5264C115.584 36.6471 117.22 37.9618 116.416 39.6012C115.834 40.7853 114.495 41.112 113.286 40.8585C112.868 40.7714 112.272 40.4348 111.896 40.6665C111.684 40.7971 111.71 41.0308 111.345 40.9417L111.848 38.1994L112.189 38.1954C112.189 38.9063 112.339 39.8111 112.971 40.2368C113.733 40.7496 115.113 40.6229 115.357 39.6012C115.679 38.243 113.474 36.8926 113.147 35.568C112.745 33.9483 114.262 32.8277 115.771 33.194C116.341 33.3326 116.996 33.8988 117.406 33.1464H117.402Z" fill="black"/>
<path d="M70.2524 36.4471L69.9395 37.5717H65.5419L65.8845 36.4471H70.2524Z" fill="black"/>
</svg>
